X: 5322
T: Brudevalsen
R: waltz
M: 3/4
K: Fmajor
"C7"C2 CE G2|"F"C2 CF A2|"C7"C2 E2 G2|"C7"B6|
"F/F"z6|"F/C"z6|"F/F"z6|"F/C"z6||
|:"F"A2 c3 d|"C7"c4 G2|"F"A3 G F2|"C7"C6|
"F"c2 f3 g|"Dm"f4 e2|"G7"d4 e2|"C"d4 c2|
"F"A2 c3 d|"C7"c4 G2|"Dm"A3 G F2|"C7"C6|
"F"c2 f3 g|"Dm"f4 e2|"G7"d4 e2|"C"c4 c2|
"F"f4 A2|"C7"c4 B2|"D7"A3/2c/ B3 ^F|"Gm"A4 G2|
"C7"c2 B2 G2|"F"(3FGF E2 F2|"C7"AA A2 G2|"F"F4 c2|
"F"f4 A2|"C7"c4 B2|"D7"A3/2c/ B3 ^F|"Gm"A4 G2|
"C7"c2 B2 G2|"F"(3FGF E2 F2|"C7"AA A2 G2|"F"F6:|

